symbols/web/3p/materialsymbolssharp/3p_wght200gradN25fill1_24px.svg

<svg xmlns="http://www.w3.org/2000/svg" height="24" width="24"><path d="M8.75 13.025h6.5v-.15q0-.775-.925-1.275-.925-.5-2.325-.5-1.4 0-2.325.5-.925.5-.925 1.275ZM12 9.45q.6 0 1.025-.425.425-.425.425-1.05 0-.6-.425-1.025Q12.6 6.525 12 6.525q-.6 0-1.025.425-.425.425-.425 1.025 0 .625.425 1.05.425.425 1.025.425Zm-8.85 10.4V3.15h17.7v13.7H6.15Z"/></svg>

<svg xmlns="http://www.w3.org/2000/svg" height="24" width="24"><path d="M8.75 13.025H15.25V12.875Q15.25 12.1 14.325 11.6Q13.4 11.1 12 11.1Q10.6 11.1 9.675 11.6Q8.75 12.1 8.75 12.875ZM12 9.45Q12.6 9.45 13.025 9.025Q13.45 8.6 13.45 7.975Q13.45 7.375 13.025 6.95Q12.6 6.525 12 6.525Q11.4 6.525 10.975 6.95Q10.55 7.375 10.55 7.975Q10.55 8.6 10.975 9.025Q11.4 9.45 12 9.45ZM3.15 19.85V3.15H20.85V16.85H6.15Z"/></svg>
